X:1
T:Chuedreckerli A-Dur (trad. AR/AI)
T:Naturjodel rund um den Saentis (www.roothuus-gonten.ch)
%%partsbox
%P:
Q:1/4=44
R:Naturjodel
M:4/4
L:1/8
K:A %%MIDI gchordon
[P:A] e3B^d2F2 | "A"e3Ac2E2 | "E7"B3e^d2f2 | "A"c4E4 | 
"E7"e3B^d2F2 | "A"e3Ac2E2 | "E7"B3e^d2c2 | "A"A8 |] 
[P:B] "E7"B3f^d2E2 | "A"A3ec2E2 | "E7"B3ef2e^d | "A"c4E4 | 
"E7"B3f^d2E2 | "A"A3ec2F2 | "E7"B3e ^d>B c2 | "A"A8 |]  
[P:C] "E7"f3E ^d2E2 | "A"f3e c2E2 | "E7"B3ef2e^d | "A"c4E4 | 
"E7"f3E^d2E2 | "A"f3ec2E2 | "E7"B3e^d2c2 | "E7"A8 |] 
W:
%W:Parts: ABC
W:"Mit de Alpeblueme singe und zaure",
W: Jodlerklub (JK) Alpenblumen, Herisau.
W:Jodler Ernst Schiess
W: 
W:Auffällig ist, dass der Jodler oft die letzte Note des Taktes etwas überdehnt singt.
W: Das altertümliche "Abwürgen des Schlusstones" ist nur noch bei älteren Sängern anzutreffen.
W:
W:Dieser Jodel ist auch unter anderen Namen zu finden, u.a. in der Sammlung 
W: "Das Volkslied im Appenzellerlande"von Alfred Tobler (1903), S. 92:
W:https://www.roothuus-gonten.ch/mediendateien/jodel/pdf/Chuedreckerli.173.pdf
W: *AUDIO*:  www.roothuus-gonten.ch/cms/index.php/de/naturjodel-rund-um-den-saentis
% © 2017 ROOTHUUS GONTEN. #173.90
% Jan 30, 2019

